app/dist/common/images/osi-systems.svg

<svg height="18" width="18" xmlns="http://www.w3.org/2000/svg"><path d="m0 0h18v18h-18z" fill="#e31936"/><path d="m15 6h-1.625l-.975 6h1.625zm-12.835 2.392c.544-1.985 2.455-2.42 3.343-2.39.732 0 2.903.24 2.424 2.946-.48 2.706-2.237 3.052-3.356 3.052-1.913 0-3.014-1.406-2.41-3.608zm7.4-2.392h3.16l-.325 1.5h-1.959c-.526 0-.542.423-.477.75h1.486c.28.021.823.435.743 1.737-.08 1.303-.836 2.013-1.23 2.013h-3.439l.325-1.5h2.325c.266 0 .316-.513.266-.75h-1.163c-.396 0-1.208-.442-1.102-1.827s.877-1.923 1.39-1.923z" fill="#fff"/><path d="m3.715 8.825c.225-1.118 1.105-1.348 1.515-1.323 1.138.089 1.202 1.082 1.056 1.605-.366 1.317-1.316 1.475-1.767 1.364-.36-.083-1.028-.527-.804-1.646z" fill="#e31936"/></svg>

<!-- by TradingView --><svg width="18" height="18" xmlns="http://www.w3.org/2000/svg"><path fill="#E31936" d="M0 0h18v18H0z"/><path d="M15 6h-1.625l-.975 6h1.625L15 6zM2.165 8.392c.544-1.985 2.455-2.42 3.343-2.39.732 0 2.903.24 2.424 2.946C7.452 11.654 5.695 12 4.576 12c-1.913 0-3.014-1.406-2.41-3.608zM9.565 6h3.16L12.4 7.5h-1.959c-.526 0-.542.423-.477.75h1.486c.28.021.823.435.743 1.737-.08 1.303-.836 2.013-1.23 2.013H7.524l.325-1.5h2.325c.266 0 .316-.513.266-.75H9.277c-.396 0-1.208-.442-1.102-1.827C8.281 6.538 9.052 6 9.565 6z" fill="#fff"/><path d="M3.715 8.825C3.94 7.707 4.82 7.477 5.23 7.502c1.138.089 1.202 1.082 1.056 1.605-.366 1.317-1.316 1.475-1.767 1.364-.36-.083-1.028-.527-.804-1.646z" fill="#E31936"/></svg>
